ui_kit/lib/assets/icons/emoji.svg

<svg width="24" height="24" viewBox="0 0 24 24" fill="none" xmlns="http://www.w3.org/2000/svg">
<g id="Icon">
<path id="Vector" fill-rule="evenodd" clip-rule="evenodd" d="M4.63636 12C4.63636 7.93318 7.93318 4.63636 12 4.63636C16.0668 4.63636 19.3636 7.93318 19.3636 12C19.3636 16.0668 16.0668 19.3636 12 19.3636C7.93318 19.3636 4.63636 16.0668 4.63636 12ZM12 3C7.02944 3 3 7.02944 3 12C3 16.9706 7.02944 21 12 21C16.9706 21 21 16.9706 21 12C21 7.02944 16.9706 3 12 3ZM8.23633 12.9818C8.59669 12.7115 9.10743 12.7835 9.37922 13.142L9.38301 13.1469C9.38788 13.153 9.39714 13.1645 9.41068 13.1807C9.4378 13.213 9.48176 13.2634 9.54168 13.3259C9.6622 13.4517 9.84329 13.6223 10.0778 13.7928C10.5499 14.1362 11.2027 14.4545 12 14.4545C12.7973 14.4545 13.45 14.1362 13.9221 13.7928C14.1566 13.6223 14.3377 13.4517 14.4583 13.3259C14.5182 13.2634 14.5621 13.213 14.5893 13.1807C14.6028 13.1645 14.612 13.153 14.6169 13.1469L14.6207 13.142C14.8925 12.7835 15.4032 12.7115 15.7636 12.9818C16.1251 13.2529 16.1984 13.7658 15.9272 14.1273L15.2727 13.6363C15.9272 14.1273 15.927 14.1275 15.9268 14.1278L15.9264 14.1284L15.9255 14.1296L15.9232 14.1326L15.9173 14.1403L15.8999 14.1626C15.8858 14.1804 15.8667 14.204 15.8427 14.2326C15.7947 14.2898 15.7268 14.3673 15.6397 14.4581C15.4662 14.6392 15.2126 14.8777 14.8846 15.1162C14.2317 15.591 13.2481 16.0909 12 16.0909C10.7518 16.0909 9.76819 15.591 9.11533 15.1162C8.78732 14.8777 8.53376 14.6392 8.36024 14.4581C8.27315 14.3673 8.20524 14.2898 8.15726 14.2326C8.13324 14.204 8.11414 14.1804 8.10003 14.1626L8.0826 14.1403L8.07671 14.1326L8.07446 14.1296L8.07352 14.1284L8.07309 14.1278C8.07289 14.1275 8.07269 14.1273 8.72724 13.6363L8.07269 14.1273C7.80157 13.7658 7.87484 13.2529 8.23633 12.9818ZM8.72729 9.54547C8.72729 9.0936 9.0936 8.72729 9.54547 8.72729H9.55365C10.0055 8.72729 10.3718 9.0936 10.3718 9.54547C10.3718 9.99734 10.0055 10.3637 9.55365 10.3637H9.54547C9.0936 10.3637 8.72729 9.99734 8.72729 9.54547ZM14.4545 8.72729C14.0027 8.72729 13.6364 9.0936 13.6364 9.54547C13.6364 9.99734 14.0027 10.3637 14.4545 10.3637H14.4627C14.9146 10.3637 15.2809 9.99734 15.2809 9.54547C15.2809 9.0936 14.9146 8.72729 14.4627 8.72729H14.4545Z" fill="#22252A" fill-opacity="0.95"/>
</g>
</svg>

<svg xmlns="http://www.w3.org/2000/svg" width="24" height="24" fill="none" viewBox="0 0 24 24"><path fill="#22252A" fill-opacity=".95" fill-rule="evenodd" d="M4.636 12a7.364 7.364 0 1 1 14.728 0 7.364 7.364 0 0 1-14.728 0ZM12 3a9 9 0 1 0 0 18 9 9 0 0 0 0-18Zm-3.764 9.982a.818.818 0 0 1 1.143.16l.004.005.028.034a4.041 4.041 0 0 0 .667.612c.472.343 1.125.661 1.922.661.797 0 1.45-.318 1.922-.661a4.049 4.049 0 0 0 .667-.612l.028-.034.004-.005a.818.818 0 0 1 1.306.985l-.654-.49.654.49v.001l-.002.002-.002.003-.006.007-.017.023a4.59 4.59 0 0 1-.26.296c-.174.18-.427.419-.755.657-.653.475-1.637.975-2.885.975-1.248 0-2.232-.5-2.885-.975a5.677 5.677 0 0 1-.958-.883 3.21 3.21 0 0 1-.057-.07l-.017-.023-.006-.007-.003-.003v-.002l.653-.492-.654.491a.818.818 0 0 1 .163-1.145Zm.491-3.437c0-.451.367-.818.818-.818h.009a.818.818 0 0 1 0 1.637h-.009a.818.818 0 0 1-.818-.819Zm5.727-.818a.818.818 0 0 0 0 1.637h.009a.818.818 0 0 0 0-1.637h-.008Z" clip-rule="evenodd"/></svg>
